X:321
T:The Health
C:John Playford, 1651
N:The B-music is 20th century and I've forgotten who it's by.
M:2/2
L:1/4
S:Colin Hume's website,  colinhume.com  - chords can also be printed below the stave.
Q:1/2=112
K:G
P:A
|: B/c/ | "G"dd "D"d3/c/ | "G"B G- "/"G c/d/ | "C"ee "Em"B3/c/ | "D"d2- "/"dA/B/ |\
"C"cc "D7"BA | "G"B2 "Em"AG | "Am"AB "D7"A3/G/ | "G"G3 :|
P:B
|: F/G/ | "D"AA "A7"A3/G/ | "D"F D- "/"D E/F/ | "Em"GF "D"G3/A/ | "G"B2- "/"BA/B/ |\
"C"cc "D7"BA | "G"B2 "Em"AG | "Am"AB "D7"A3/G/ | "G"G3 :|

